X: 3252
T: Miss Macmurdos Favourite   a Strathspey
%R: strathspey
B: Niel Gow & Sons "A Third Collection of Strathspey Reels, etc." v.3 p.25 #2
Z: 2022 John Chambers <jc:trillian.mit.edu>
M: C
L: 1/8
K: Em
% - - - - - - - - - -
V: 1 staves=2
B |\
e>f e^d {d}e2Be | Td>efg (f<a)gf | e>fe^d {d}e2B>A | TG>ABB, E3 :| d | TB>cdB Tc>BAg | (fg)ef Bbgf |
e>fe^d e2TB>A | TG>ABB, E3d || B>cdB ~c>BAg | (fg)(ef) (^db).g.f | "^Expr.o P."(eg)(fa) (gb)(eg) | (GB)(B,^D) E3 |]
% - - - - - - - - - -
% Voice 2 preserves the staff layout in the book.
V: 2 clef=bass middle=d
z | e3B e2g2 | fede B2b2 | gfeB cA GF | Ec BB E2e :| z | g2g2 d2f2 | g2e2 ^d2B2 |
e3B cA GF | EcBB EeE2 || g2G2 d2f2 | g2e2 b2G2 | "^Expr.o P."[B2e2][B2^d2] e2A2 | B2B2 E3 |]


